public/avatar/shoe/101.svg

<svg xmlns:xlink="http://www.w3.org/1999/xlink" height="38.3" width="36.05" xmlns="http://www.w3.org/2000/svg"><use height="17.8" transform="translate(7.1 10.75)" width="24.15" xlink:href="#a"/><defs><g id="a" fill-rule="evenodd"><path d="M2.3-2.3-.45-3q-2.5-.3-4.2.7l-.1.05-.25.15-2.05 1.4-5.2 3.15-.25.15-1.05 1.3-.25.45-.65 1.6q-.95 2.8 0 4.5l.75.85q-.35-4.7 1.15-6.45.9-1.1 1.15-.6.2.55-.35 1.45-.9 1.3-.75 5.75l.35.5q.55.5 1.75.5l2.1-.25q-.4-4.8 1.15-6.55Q-6.2 4.5-6 5.1q.25.45-.4 1.4-.85 1.3-.65 5.55l2.25.45q1.3-.2 2.75-1.1Q4.8 9.75 6 7.85q.85-1.35-.2-4.6Q4.85.45 3.55-1.3l-1-.85Q1.8-3.3 2.3-2.3m4.5 5.4Q8 6.7 7 8.2q-1.4 2.2-9.15 4.05-1.7 1.05-3.1 1.25L-8 13.1q-.85.6-3 .6-1.4 0-2.3-.7l-.65-.65q-1.3.3-2.2-1.15-1.1-1.9-.05-5.05.9-2.7 2.25-3.9l4.5-2.3 3.95-3q2.05-1.25 5.25-1 3.15.3 4.45 1.95Q5.75-.2 6.8 3.1M-4.65-2.3v-.05.05h-.05.05m-.05 0-.05.05.05-.05" fill="#4b271a" transform="translate(16.7 4.1)"/><path d="m2.3-2.3.95 1.75Q5.5 3.7 5.55 6.6q.05.6-.55 1.15-.45.4-.2.5Q6.5 8.2 6.05 5.9q-.4-2.2-1.55-4.65L3.45-.8l-.9-1.35 1 .85Q4.85.45 5.8 3.25q1.05 3.25.2 4.6-1.2 1.9-8.05 3.55-1.45.9-2.75 1.1l-2.25-.45q-.2-4.25.65-5.55.65-.95.4-1.4-.2-.6-1.15.55Q-8.7 7.4-8.3 12.2l-2.1.25q-1.2 0-1.75-.5l-.35-.5q-.15-4.45.75-5.75.55-.9.35-1.45-.25-.5-1.15.6-1.5 1.75-1.15 6.45l-.75-.85q-.95-1.7 0-4.5l.65-1.6v.35l-.35.9-.5 2.15q.2.25.85-1.5.7-2.25 1.55-2.8.75-.5 2.6-.8 2-.35 1.85.2-.2.65-2.35 1.8l-.1.7.45.3 2.15-1.25q4.4-1.85 4-.45-.1.5-1.75 1.9-.7 1.35 1.7-.25 2.3-1.75 2.2-2.5-.15-1.65-3-2.15-1.2-.2-1.25-.7 0-.7 1.75-2.75l-1.25.75.5-.5.1-.05q1.7-1 4.2-.7l2.75.7m2.9 8.5q.1-1.45-1.35-4.45L2.35-.9Q1.9-.95 1.3 2.15.6 5.55-1.55 6.6q-1.25.6-1.25 2 .05 1.4.8 1.25Q5 8.2 5.2 6.2M-6.2-1.2l-.85.5L-5-2.1l.25-.15L-6.2-1.2m-6.05 3.65-.05.05-.2.1.25-.15" fill="#8b594d" transform="translate(16.7 4.1)"/><path d="m2.55-2.15.9 1.35L4.5 1.25Q5.65 3.7 6.05 5.9 6.5 8.2 4.8 8.25q-.25-.1.2-.5.6-.55.55-1.15-.05-2.9-2.3-7.15L2.3-2.3q-.5-1 .25.15m-7.8.4L-4-2.5Q-5.75-.45-5.75.25q.05.5 1.25.7 2.85.5 3 2.15.1.75-2.2 2.5-2.4 1.6-1.7.25 1.65-1.4 1.75-1.9.4-1.4-4 .45L-9.8 5.65l-.45-.3.1-.7Q-8 3.5-7.8 2.85q.15-.55-1.85-.2-1.85.3-2.6.8-.85.55-1.55 2.8-.65 1.75-.85 1.5l.5-2.15.35-.9.05.05q.25.15 2.05-2.15Q-7.9.9-7.45.45l2.2-2.2M-7.05-.7l.85-.5L-8.15.25-12.3 2.5l.05-.05 5.2-3.15" fill="#bc8a78" transform="translate(16.7 4.1)"/><path d="M5.2 6.2Q5 8.2-2 9.85q-.75.15-.8-1.25 0-1.4 1.25-2Q.6 5.55 1.3 2.15 1.9-.95 2.35-.9l1.5 2.65q1.45 3 1.35 4.45" fill="#6e3d34" transform="translate(16.7 4.1)"/><path d="m-4.75-2.25-.5.5-2.2 2.2Q-7.9.9-11.7 2.6q-1.8 2.3-2.05 2.15l-.05-.05v-.35l.25-.45 1.05-1.3.2-.1L-8.15.25-6.2-1.2l1.45-1.05" fill="#f7c5ac" transform="translate(16.7 4.1)"/></g></defs></svg>

<?xml version="1.0" encoding="UTF-8" standalone="no"?>
<svg xmlns:xlink="http://www.w3.org/1999/xlink" height="38.3px" width="36.05px" xmlns="http://www.w3.org/2000/svg">
  <g transform="matrix(1.0, 0.0, 0.0, 1.0, 23.8, 14.85)">
    <use height="17.8" transform="matrix(1.0, 0.0, 0.0, 1.0, -16.7, -4.1)" width="24.15" xlink:href="#shape0"/>
  </g>
  <defs>
    <g id="shape0" transform="matrix(1.0, 0.0, 0.0, 1.0, 16.7, 4.1)">
      <path d="M2.3 -2.3 L-0.45 -3.0 Q-2.95 -3.3 -4.65 -2.3 L-4.75 -2.25 -5.0 -2.1 -7.05 -0.7 -12.25 2.45 -12.5 2.6 -13.55 3.9 -13.8 4.35 -14.45 5.95 Q-15.4 8.75 -14.45 10.45 L-13.7 11.3 Q-14.05 6.6 -12.55 4.85 -11.65 3.75 -11.4 4.25 -11.2 4.8 -11.75 5.7 -12.65 7.0 -12.5 11.45 L-12.15 11.95 Q-11.6 12.45 -10.4 12.45 L-8.3 12.2 Q-8.7 7.4 -7.15 5.65 -6.2 4.5 -6.0 5.1 -5.75 5.55 -6.4 6.5 -7.25 7.8 -7.05 12.05 L-4.8 12.5 Q-3.5 12.3 -2.05 11.4 4.8 9.75 6.0 7.85 6.85 6.5 5.8 3.25 4.85 0.45 3.55 -1.3 L2.55 -2.15 Q1.8 -3.3 2.3 -2.3 M6.8 3.1 Q8.0 6.7 7.0 8.2 5.6 10.4 -2.15 12.25 -3.85 13.3 -5.25 13.5 L-8.0 13.1 Q-8.85 13.7 -11.0 13.7 -12.4 13.7 -13.3 13.0 L-13.95 12.35 Q-15.25 12.65 -16.15 11.2 -17.25 9.3 -16.2 6.15 -15.3 3.45 -13.95 2.25 L-9.45 -0.05 -5.5 -3.05 Q-3.45 -4.3 -0.25 -4.05 2.9 -3.75 4.2 -2.1 5.75 -0.2 6.8 3.1 M-4.65 -2.3 L-4.65 -2.35 -4.65 -2.3 -4.7 -2.3 -4.65 -2.3 M-4.7 -2.3 L-4.75 -2.25 -4.7 -2.3" fill="#4b271a" fill-rule="evenodd" stroke="none"/>
      <path d="M2.3 -2.3 L3.25 -0.55 Q5.5 3.7 5.55 6.6 5.6 7.2 5.0 7.75 4.55 8.15 4.8 8.25 6.5 8.2 6.05 5.9 5.65 3.7 4.5 1.25 L3.45 -0.8 2.55 -2.15 3.55 -1.3 Q4.85 0.45 5.8 3.25 6.85 6.5 6.0 7.85 4.8 9.75 -2.05 11.4 -3.5 12.3 -4.8 12.5 L-7.05 12.05 Q-7.25 7.8 -6.4 6.5 -5.75 5.55 -6.0 5.1 -6.2 4.5 -7.15 5.65 -8.7 7.4 -8.3 12.2 L-10.4 12.45 Q-11.6 12.45 -12.15 11.95 L-12.5 11.45 Q-12.65 7.0 -11.75 5.7 -11.2 4.8 -11.4 4.25 -11.65 3.75 -12.55 4.85 -14.05 6.6 -13.7 11.3 L-14.45 10.45 Q-15.4 8.75 -14.45 5.95 L-13.8 4.35 -13.8 4.7 -14.15 5.6 -14.65 7.75 Q-14.45 8.0 -13.8 6.25 -13.1 4.0 -12.25 3.45 -11.5 2.95 -9.65 2.65 -7.65 2.3 -7.8 2.85 -8.0 3.5 -10.15 4.65 L-10.25 5.35 -9.8 5.65 -7.65 4.4 Q-3.25 2.55 -3.65 3.95 -3.75 4.45 -5.4 5.85 -6.1 7.2 -3.7 5.6 -1.4 3.85 -1.5 3.1 -1.65 1.45 -4.5 0.95 -5.7 0.75 -5.75 0.25 -5.75 -0.45 -4.0 -2.5 L-5.25 -1.75 -4.75 -2.25 -4.65 -2.3 Q-2.95 -3.3 -0.45 -3.0 L2.3 -2.3 M5.2 6.2 Q5.3 4.75 3.85 1.75 L2.35 -0.9 Q1.9 -0.95 1.3 2.15 0.6 5.55 -1.55 6.6 -2.8 7.2 -2.8 8.6 -2.75 10.0 -2.0 9.85 5.0 8.2 5.2 6.2 M-6.2 -1.2 L-7.05 -0.7 -5.0 -2.1 -4.75 -2.25 -6.2 -1.2 M-12.25 2.45 L-12.3 2.5 -12.5 2.6 -12.25 2.45" fill="#8b594d" fill-rule="evenodd" stroke="none"/>
      <path d="M2.55 -2.15 L3.45 -0.8 4.5 1.25 Q5.65 3.7 6.05 5.9 6.5 8.2 4.8 8.25 4.55 8.15 5.0 7.75 5.6 7.2 5.55 6.6 5.5 3.7 3.25 -0.55 L2.3 -2.3 Q1.8 -3.3 2.55 -2.15 M-5.25 -1.75 L-4.0 -2.5 Q-5.75 -0.45 -5.75 0.25 -5.7 0.75 -4.5 0.95 -1.65 1.45 -1.5 3.1 -1.4 3.85 -3.7 5.6 -6.1 7.2 -5.4 5.85 -3.75 4.45 -3.65 3.95 -3.25 2.55 -7.65 4.4 L-9.8 5.65 -10.25 5.35 -10.15 4.65 Q-8.0 3.5 -7.8 2.85 -7.65 2.3 -9.65 2.65 -11.5 2.95 -12.25 3.45 -13.1 4.0 -13.8 6.25 -14.45 8.0 -14.65 7.75 L-14.15 5.6 -13.8 4.7 -13.75 4.75 Q-13.5 4.9 -11.7 2.6 -7.9 0.9 -7.45 0.45 L-5.25 -1.75 M-7.05 -0.7 L-6.2 -1.2 -8.15 0.25 -12.3 2.5 -12.25 2.45 -7.05 -0.7" fill="#bc8a78" fill-rule="evenodd" stroke="none"/>
      <path d="M5.2 6.2 Q5.0 8.2 -2.0 9.85 -2.75 10.0 -2.8 8.6 -2.8 7.2 -1.55 6.6 0.6 5.55 1.3 2.15 1.9 -0.95 2.35 -0.9 L3.85 1.75 Q5.3 4.75 5.2 6.2" fill="#6e3d34" fill-rule="evenodd" stroke="none"/>
      <path d="M-4.75 -2.25 L-5.25 -1.75 -7.45 0.45 Q-7.9 0.9 -11.7 2.6 -13.5 4.9 -13.75 4.75 L-13.8 4.7 -13.8 4.35 -13.55 3.9 -12.5 2.6 -12.3 2.5 -8.15 0.25 -6.2 -1.2 -4.75 -2.25" fill="#f7c5ac" fill-rule="evenodd" stroke="none"/>
    </g>
  </defs>
</svg>
